!!!COM: Bach, Johann Sebastian
!!!OPR: Joh. Seb. Bachs vierstimmige Choralges‰nge
!!!XEN: Four-part Chorales
!!!OTL: 149. O Mensch, bewein' dein' S¸nde gross
!!!SCT: BWV 402
!!!SCA: Thematisch-systematisches Verzeichnis der musikalischen Werke Johann Sebastian Bach: Bach-Werke-Verzeichnis (Schmieder)
!!!YOR: Bach Gesellschaft Edition xxxix
!!!ENC: Steven Rasmussen
!!!CDT: 1685/3//-1750/7/28/
!!!OCY: Deutschland
!!!YEC: Copyright (c) 1994, 2000 Center for Computer Assisted Research in the Humanities
!!!YEM: Rights to all derivative editions reserved
!!!YEN: United States of America
**kern	**silbe	**kern	**silbe	**kern	**silbe	**kern	**silbe
*I:[BASSO]	*I:[BASSO]	*I:[TENORE]	*I:[TENORE]	*I:[ALTO]	*I:[ALTO]	*I:[SOPRANO]	*I:[SOPRANO]
*>[A,A,B]	*	*>[A,A,B]	*	*>[A,A,B]	*	*>[A,A,B]	*
*>A	*	*>A	*	*>A	*	*>A	*
*clefF4	*	*clefGv2	*	*clefG2	*	*clefG2	*
*k[b-e-a-]	*	*k[b-e-a-]	*	*k[b-e-a-]	*	*k[b-e-a-]	*
*E-:	*	*E-:	*	*E-:	*	*E-:	*
*M4/4	*	*M4/4	*	*M4/4	*	*M4/4	*
4E-	.	4G	.	4B-	.	4e-	OVon
=1	=1	=1	=1	=1	=1	=1	=1
8A-L	.	4A-	.	4.c	.	4e-	Mensch,ei-
8GJ	.	.	.	.	.	.	.
4F	.	4A-	.	.	.	4f	be--ner
.	.	.	.	16BnLL	.	.	.
.	.	.	.	16cJJ	.	.	.
4BBn	.	4G	.	4.d	.	8gL	-wein'Jung-
.	.	.	.	.	.	8fJ	.
4C	.	4G	.	.	.	4e-	dein'-frau
.	.	.	.	16cLL	.	.	.
.	.	.	.	16dJJ	.	.	.
=2	=2	=2	=2	=2	=2	=2	=2
4C	.	8cL	.	4.e-	.	4g	S√ºn-zart
.	.	8B-J	.	.	.	.	.
4FF#	.	4An	.	.	.	4an	-deund
.	.	.	.	8d	.	.	.
4GG;	.	4G;	.	4d;	.	4b-;	gross,rein
4G	.	4d	da-f√ºr	[4g	da-f√ºr	4b-	da-f√ºr
=3	=3	=3	=3	=3	=3	=3	=3
8CL	.	8e-L	-rumuns	8g]	.	4a-	-rumuns
8DJ	.	8B-J	.	4f	-rumuns	.	.
4E-	.	4B-	Chri-er	.	.	4g	Chri-er
.	.	.	.	4e-	Chri-er	.	.
8AAnL	.	8cL	-stushier	.	.	4f	-stushier
8BBnJ	.	8GJ	.	8d	-stushier	.	.
4C	.	4G	.	8cL	.	8e-L	sein'sge-
.	.	.	.	8dJ	.	8fJ	.
=4	=4	=4	=4	=4	=4	=4	=4
4C	.	8cL	.	4e-	.	4g	Va--bo-
.	.	8B-J	.	.	.	.	.
4FF	.	4c	.	4e-	.	4an	-ters-ren
4BB-;	.	4B-;	.	4d;	.	4b-;	Schossward,?
8FL	√§u-er	[4A-	√§u-er	[4f	√§u-er	4cc	√§u-er
8E-J	.	.	.	.	.	.	.
=5	=5	=5	=5	=5	=5	=5	=5
8DL	-ssertwollt'	8A-]	.	8f]	.	4b-	-ssertwollt'
8BB-J	.	4G	-ssertwollt'	16e-LL	-ssertwollt'	.	.
.	.	.	.	16dJ	.	.	.
8CL	undder	.	.	8e-J	.	4a-	undder
8DJ	.	8F	undder	8B-	undder	.	.
8E-L	kamMitt-	4.E-	kamMitt-	8B-L	kamMitt-	4g	kamMitt-
8DJ	.	.	.	16e-L	.	.	.
.	.	.	.	16dJJ	.	.	.
8CL	auf-ler	.	.	[4e-	.	4a-	auf-ler
8BB-J	.	8B-	auf-ler	.	.	.	.
=6	=6	=6	=6	=6	=6	=6	=6
8AA-L	Er-wer-	8cL	Er-wer-	8e-]	.	2f	Er-wer-
8FFJ	.	8A-	.	16dLL	auf-ler	.	.
.	.	.	.	16cJJ	.	.	.
4BB-	.	8F	.	4d	Er-wer-	.	.
.	.	8B-J	.	.	.	.	.
4EE-;	-den.-den.	4G;	-den.-den.	4B-;	-den.-den.	4e-;	-den.-den.
=:|!	=:|!	=:|!	=:|!	=:|!	=:|!	=:|!	=:|!
*>B	*	*>B	*	*>B	*	*>B	*
8EE-L	.	8GL	.	8b-L	.	4ee-	Den
8FFJ	.	8A-J	.	8a-J	.	.	.
=7	=7	=7	=7	=7	=7	=7	=7
4GG	.	4B-	.	4g	.	4ee-	To-
4AAn	.	4c	.	4f	.	4ee-	-den
8BB-L	.	8cL	.	4f	.	4dd	er
8CJ	.	16B-L	.	.	.	.	.
.	.	16A-JJ	.	.	.	.	.
4D-	.	4G	.	4e-	.	4b-	das
=8	=8	=8	=8	=8	=8	=8	=8
8CL	.	4A-	.	8e-L	.	4cc	Le-
8BB-J	.	.	.	8d-J	.	.	.
4AA-	.	4A-	.	4e-	.	4cc	-ben
4E-;	.	4B-;	.	4e-;	.	4g;	gab,
8CL	.	4c	.	4g	.	4ee-	und
8BB-J	.	.	.	.	.	.	.
=9	=9	=9	=9	=9	=9	=9	=9
8AAnL	.	8cL	.	4f	.	4ee-	legt'
8GGJ	.	8B-J	.	.	.	.	.
4FF	.	4An	.	4f	.	4ee-	da-
8BB-L	.	8B-L	.	4f	.	4dd	-bei
8CJ	.	8AJ	.	.	.	.	.
4D	.	4B-	.	4f	.	4b-	all'
=10	=10	=10	=10	=10	=10	=10	=10
4E-	.	8B-L	.	4g	.	4cc	Krank-
.	.	16AnL	.	.	.	.	.
.	.	16GJJ	.	.	.	.	.
4F	.	4A	.	8fL	.	4cc	-heit
.	.	.	.	8e-J	.	.	.
4BB-;	.	4B-;	.	4d;	.	4b-;	ab,
4E-	.	4B-	.	8e-L	.	8gL	bis
.	.	.	.	8fJ	.	8a-J	.
=11	=11	=11	=11	=11	=11	=11	=11
8E-L	.	4e-	.	4g	.	4b-	sich
8D-J	.	.	.	.	.	.	.
8CL	.	4e-	.	4a-	.	4cc	die
8DnJ	.	.	.	.	.	.	.
4E-	.	(8e-	.	4g	.	4b-	Zeit
.	.	4d-)	.	.	.	.	.
4En	.	.	.	4g	.	4g	her-
.	.	8c	.	.	.	.	.
=12	=12	=12	=12	=12	=12	=12	=12
4F	.	4c	.	8gL	.	2a-	-dran-
.	.	.	.	16fL	.	.	.
.	.	.	.	16e-J	.	.	.
4BBn	.	8dL	.	8f	.	.	.
.	.	8fJ	.	8dJ	.	.	.
4C;	.	4c;	.	4e-;	.	4g;	-ge,
4D-	.	4A-	.	4f	.	4f	dass
=13	=13	=13	=13	=13	=13	=13	=13
4D-	.	4B-	.	4e-	.	4g	er
4C	.	4c	.	4e-	.	4a-	f√ºr
8BB-L	.	4d	.	4f	.	4b-	uns
8AA-J	.	.	.	.	.	.	.
4GG	.	8DL	.	4g	.	4b-	ge-
.	.	8EnJ	.	.	.	.	.
=14	=14	=14	=14	=14	=14	=14	=14
4FF	.	4F	.	8cL	.	4a-	-op-
.	.	.	.	8dJ	.	.	.
8GGL	.	4B-	.	4e-	.	4g	-fert
8AA-J	.	.	.	.	.	.	.
4BB-;	.	4B-;	.	(8e-L	.	4f;	w√ºrd',
.	.	.	.	8d;J)	.	.	.
4B-	.	4d	.	4f	.	4b-	tr√ºg'
=15	=15	=15	=15	=15	=15	=15	=15
4An	.	4c	.	4f	.	4cc	uns-
4A-	.	4B-	.	4f	.	4dd	-rer
4.G	.	8B-L	.	8gL	.	4ee-	S√ºn-
.	.	8cJ	.	8anJ	.	.	.
.	.	4d	.	4b-	.	4dd	-den
8F	.	.	.	.	.	.	.
=16	=16	=16	=16	=16	=16	=16	=16
4En	.	4G	.	4b-	.	4cc	schwe-
4F#	.	4d	.	4an	.	4cc	-re
4G;	.	4d;	.	4g;	.	4b-;	B√ºrd'
4A-	.	4c	.	4e-	.	4e-	wohl
=17	=17	=17	=17	=17	=17	=17	=17
8A-L	.	4B-	.	4d	.	4f	an
8GJ	.	.	.	.	.	.	.
8FL	.	[4B-	.	4e-	.	4g	dem
8E-J	.	.	.	.	.	.	.
8DL	.	8B-L]	.	8fL	.	4a-	Kreu-
8BB-J	.	8FJ	.	8dJ	.	.	.
8E-L	.	8GL	.	8B-L	.	4g	-ze
8GGJ	.	8B-J	.	8e-J	.	.	.
=18	=18	=18	=18	=18	=18	=18	=18
4AA-	.	8cL	.	8e-L	.	2f	lan-
.	.	8A-	.	16dL	.	.	.
.	.	.	.	16cJJ	.	.	.
4BB-	.	8F	.	4d	.	.	.
.	.	16B-L	.	.	.	.	.
.	.	16A-JJ	.	.	.	.	.
4EE-;	.	4G;	.	4B-;	.	4e-;	-ge.
==|!	==|!	==|!	==|!	==|!	==|!	==|!	==|!
!!!RNB1: *) "Schoss" spelled "Schooss" in BG.
*-	*-	*-	*-	*-	*-	*-	*-
!!!RWG: Key is interpreted using the Humdrum key tool.
!!!URL-pdf: https://s9.imslp.org/files/imglnks/usimg/6/6b/IMSLP24489-PMLP09471-CCARH_Bach_Chorales.pdf#page=104 Musedata edition
!!!URL-pdf: https://s9.imslp.org/files/imglnks/usimg/7/7a/IMSLP04155-Bach_-_BGA_253-438.pdf#page=82 	Bach-Gesellschaft Ausgabe, Band 39 (pp.175-276) Leipzig: Breitkopf und H‰rtel, 1892. Plate B.W. XXXIX.
!!!END: 1994/07/27
!!!EMD: Converted from MuseData to Humdrum Dec 19, 2000, by Andreas Kornstaedt using muse2kern.
!!!EED: Craig Stuart Sapp
!!!EEV: 2024/03/31
!!!ONB: Some non-unicode characters
!!!filter-keyboard: satb2gs
